Numix-Circle/48x48/apps/eog.svg

<?xml version="1.0" encoding="UTF-8" standalone="no"?>
<svg
   xmlns:dc="http://purl.org/dc/elements/1.1/"
   xmlns:cc="http://creativecommons.org/ns#"
   xmlns:rdf="http://www.w3.org/1999/02/22-rdf-syntax-ns#"
   xmlns:svg="http://www.w3.org/2000/svg"
   xmlns="http://www.w3.org/2000/svg"
   xmlns:xlink="http://www.w3.org/1999/xlink"
   xmlns:sodipodi="http://sodipodi.sourceforge.net/DTD/sodipodi-0.dtd"
   xmlns:inkscape="http://www.inkscape.org/namespaces/inkscape"
   width="48"
   viewBox="0 0 13.546667 13.546667"
   height="48"
   id="svg2"
   version="1.1"
   inkscape:version="0.91 r13725"
   sodipodi:docname="eom.svg">
  <metadata
     id="metadata331">
    <rdf:RDF>
      <cc:Work
         rdf:about="">
        <dc:format>image/svg+xml</dc:format>
        <dc:type
           rdf:resource="http://purl.org/dc/dcmitype/StillImage" />
        <dc:title />
      </cc:Work>
    </rdf:RDF>
  </metadata>
  <sodipodi:namedview
     pagecolor="#ffffff"
     bordercolor="#666666"
     borderopacity="1"
     objecttolerance="10"
     gridtolerance="10"
     guidetolerance="10"
     inkscape:pageopacity="0"
     inkscape:pageshadow="2"
     inkscape:window-width="1920"
     inkscape:window-height="1023"
     id="namedview329"
     showgrid="false"
     inkscape:zoom="34.225815"
     inkscape:cx="44.690751"
     inkscape:cy="18.746563"
     inkscape:window-x="0"
     inkscape:window-y="28"
     inkscape:window-maximized="1"
     inkscape:current-layer="layer3">
    <inkscape:grid
       type="xygrid"
       id="grid3308" />
  </sodipodi:namedview>
  <defs
     id="defs4">
    <linearGradient
       inkscape:collect="always"
       xlink:href="#linearGradient3798"
       id="linearGradient3950"
       x1="-25.499998"
       y1="15"
       x2="-25.499998"
       y2="11"
       gradientUnits="userSpaceOnUse" />
    <linearGradient
       id="linearGradient3798">
      <stop
         style="stop-color:#93c849;stop-opacity:1;"
         offset="0"
         id="stop3800" />
      <stop
         style="stop-color:#9ccd57;stop-opacity:1;"
         offset="1"
         id="stop3802" />
    </linearGradient>
  </defs>
  <g
     inkscape:groupmode="layer"
     id="layer1"
     inkscape:label="Shadow"
     sodipodi:insensitive="true">
    <path
       style="opacity:0.05;fill:#000000;fill-opacity:1;stroke:none"
       d="M 25,2 C 12.297451,2 2,12.297451 2,25 2,31.367153 4.6007106,37.116628 8.78125,41.28125 12.865755,44.99361 18.29568,47.25 24.25,47.25 c 12.702549,0 23,-10.297451 23,-23 0,-5.95432 -2.25639,-11.384245 -5.96875,-15.46875 C 37.116628,4.6007105 31.367153,2 25,2 z M 41.28125,8.78125 C 45.135604,12.894061 47.5,18.418655 47.5,24.5 c 0,12.702549 -10.297451,23 -23,23 C 18.418655,47.5 12.894061,45.135604 8.78125,41.28125 12.940939,45.4251 18.664604,48 25,48 37.702549,48 48,37.702549 48,25 48,18.664604 45.4251,12.940939 41.28125,8.78125 z"
       transform="scale(0.28222223,0.28222223)"
       id="path3978"
       inkscape:connector-curvature="0" />
    <path
       style="opacity:0.1;fill:#000000;fill-opacity:1;stroke:none"
       d="M 41.28125,8.78125 C 44.99361,12.865755 47.25,18.29568 47.25,24.25 c 0,12.702549 -10.297451,23 -23,23 -5.95432,0 -11.384245,-2.25639 -15.46875,-5.96875 C 12.894061,45.135604 18.418655,47.5 24.5,47.5 c 12.702549,0 23,-10.297451 23,-23 0,-6.081345 -2.364396,-11.605939 -6.21875,-15.71875 z"
       transform="scale(0.28222223,0.28222223)"
       id="path3976"
       inkscape:connector-curvature="0" />
    <path
       transform="matrix(4.3274074,0,0,3.2455556,117.19278,-35.348334)"
       d="m -24,13 a 1.5,2 0 1 1 -3,0 1.5,2 0 1 1 3,0 z"
       sodipodi:ry="2"
       sodipodi:rx="1.5"
       sodipodi:cy="13"
       sodipodi:cx="-25.5"
       id="path3952"
       style="opacity:0.2;fill:#000000;fill-opacity:1;stroke:none"
       sodipodi:type="arc" />
  </g>
  <g
     inkscape:groupmode="layer"
     id="layer2"
     inkscape:label="Base">
    <path
       sodipodi:type="arc"
       style="opacity:1;fill:url(#linearGradient3950);fill-opacity:1.0;stroke:none"
       id="path3942"
       sodipodi:cx="-25.5"
       sodipodi:cy="13"
       sodipodi:rx="1.5"
       sodipodi:ry="2"
       d="m -24,13 a 1.5,2 0 1 1 -3,0 1.5,2 0 1 1 3,0 z"
       transform="matrix(4.3274075,0,0,3.2455556,117.12222,-35.418889)" />
    <path
       style="opacity:0.1;fill:#000000;fill-opacity:1;stroke:none"
       d="M 40.03125 7.53125 C 43.74361 11.615755 46 17.04568 46 23 C 46 35.702549 35.702549 46 23 46 C 17.04568 46 11.615755 43.74361 7.53125 40.03125 C 11.709416 44.322508 17.537578 47 24 47 C 36.702549 47 47 36.702549 47 24 C 47 17.537578 44.322508 11.709416 40.03125 7.53125 z "
       id="path4027"
       transform="scale(0.28222223,0.28222223)" />
  </g>
  <g
     inkscape:groupmode="layer"
     id="layer3"
     inkscape:label="Symbol">
    <rect
       id="use3219"
       rx="0.77592039"
       y="3.9511113"
       x="3.3866668"
       height="6.208889"
       width="7.3377781"
       style="fill:#000000;fill-opacity:0.10196078;stroke:#000000;stroke-width:0;stroke-miterlimit:4;stroke-opacity:0.10196078;stroke-dasharray:none" />
    <path
       style="fill:#2c87d5"
       inkscape:connector-curvature="0"
       d="m 3.3931112,3.9448893 -0.254,2.8222224 0.254,2.8222222 3.3866669,0.254 3.3866669,-0.254 0.254,-2.8222222 -0.254,-2.8222224 -3.3866669,-0.254 z"
       id="path122" />
    <path
       style="opacity:0.2;fill:#ffffff"
       inkscape:connector-curvature="0"
       d="M 5.8008197,3.759681 3.3931112,3.9448893 3.1461668,6.7053756 c 0.1691524,0.040467 0.3476128,0.061736 0.5291667,0.061736 1.2469362,0 2.2577779,-1.0108417 2.2577779,-2.257778 0,-0.2630257 -0.049609,-0.5149085 -0.1322917,-0.7496527 z"
       id="path124" />
    <path
       style="fill:#fbc06e"
       inkscape:connector-curvature="0"
       d="m 3.364889,3.9448893 0,1.5962489 c 0.1277154,0.060263 0.3009714,0.097085 0.4515555,0.097085 0.5455347,0 0.9877778,-0.4422431 0.9877778,-0.9877778 0,-0.2772933 -0.1158536,-0.5261495 -0.2998611,-0.7055556 z"
       id="path126" />
    <path
       style="fill:#f7f7f7"
       inkscape:connector-curvature="0"
       d="m 4.8042223,7.3315561 -1.4393333,1.4111112 0,0.8748886 3.1326669,0 0,-0.5926664 z"
       id="path128" />
    <path
       style="fill:#dfdfdf"
       inkscape:connector-curvature="0"
       d="m 4.8042223,7.3315561 0.2822222,1.1288889 -0.5644444,0.7055556 0.2822222,0.4515553 1.6933336,0 0,-0.5926664 z"
       id="path130" />
    <path
       style="fill:#f7f7f7"
       inkscape:connector-curvature="0"
       d="m 8.4731115,6.2026671 -2.5400001,3.4148888 4.2615556,0 0,-1.536347 z"
       id="path132" />
    <path
       style="fill:#dfdfdf"
       inkscape:connector-curvature="0"
       d="m 8.4731115,6.2026671 0.4233333,1.4111113 -0.4233333,1.27 0.5027083,0.7337775 1.2188472,0 0,-1.536347 z"
       id="path134" />
    <path
       style="font-size:medium;font-style:normal;font-variant:normal;font-weight:normal;font-stretch:normal;text-indent:0;text-align:start;text-decoration:none;line-height:normal;letter-spacing:normal;word-spacing:normal;text-transform:none;direction:ltr;block-progression:tb;writing-mode:lr-tb;text-anchor:start;baseline-shift:baseline;color:#000000;fill:#ffffff;fill-opacity:1;stroke:none;stroke-width:0.28200001;marker:none;visibility:visible;display:inline;overflow:visible;enable-background:accumulate;font-family:Sans;-inkscape-font-specification:Sans"
       d="m 3.75,3.65625 c -0.3526751,0 -0.65625,0.3035749 -0.65625,0.65625 l 0,4.9375 c 0,0.3526751 0.3035749,0.625 0.65625,0.625 l 6.0625,0 c 0.352675,0 0.625,-0.2723249 0.625,-0.625 l 0,-4.9375 c 0,-0.3526751 -0.272325,-0.65625 -0.625,-0.65625 l -6.0625,0 z m 0,0.28125 6.0625,0 c 0.201325,0 0.34375,0.1736751 0.34375,0.375 l 0,4.9375 c 0,0.2013249 -0.142425,0.34375 -0.34375,0.34375 l -6.0625,0 C 3.5486751,9.59375 3.375,9.4513249 3.375,9.25 l 0,-4.9375 c 0,-0.2013249 0.1736751,-0.375 0.375,-0.375 z"
       id="rect136"
       inkscape:connector-curvature="0" />
  </g>
</svg>

<svg xmlns="http://www.w3.org/2000/svg" width="48" viewBox="0 0 13.546667 13.546667" height="48">
 <defs>
  <linearGradient id="linearGradient3950" y1="15" x2="0" y2="11" gradientUnits="userSpaceOnUse">
   <stop style="stop-color:#93c849;stop-opacity:1"/>
   <stop offset="1" style="stop-color:#9ccd57;stop-opacity:1"/>
  </linearGradient>
 </defs>
 <g>
  <path d="m 25 2 c -12.703 0 -23 10.297 -23 23 0 6.367 2.601 12.12 6.781 16.281 4.085 3.712 9.514 5.969 15.469 5.969 c 12.703 0 23 -10.297 23 -23 0 -5.954 -2.256 -11.384 -5.969 -15.469 c -4.165 -4.181 -9.914 -6.781 -16.281 -6.781 z m 16.281 6.781 c 3.854 4.113 6.219 9.637 6.219 15.719 c 0 12.703 -10.297 23 -23 23 c -6.081 0 -11.606 -2.364 -15.719 -6.219 4.16 4.144 9.883 6.719 16.219 6.719 12.703 0 23 -10.297 23 -23 0 -6.335 -2.575 -12.06 -6.719 -16.219 z" transform="scale(0.28222223,0.28222223)" style="fill:#000;opacity:0.05;fill-opacity:1;stroke:none"/>
  <path d="m 41.28 8.781 c 3.712 4.085 5.969 9.514 5.969 15.469 c 0 12.703 -10.297 23 -23 23 -5.954 0 -11.384 -2.256 -15.469 -5.969 c 4.113 3.854 9.637 6.219 15.719 6.219 c 12.703 0 23 -10.297 23 -23 0 -6.081 -2.364 -11.606 -6.219 -15.719 z" transform="scale(0.28222223,0.28222223)" style="fill:#000;opacity:0.1;fill-opacity:1;stroke:none"/>
  <path transform="matrix(4.3274074,0,0,3.2455556,117.19278,-35.348334)" d="m -24 13 a 1.5 2 0 1 1 -3 0 1.5 2 0 1 1 3 0 z" style="fill:#000;opacity:0.2;fill-opacity:1;stroke:none"/>
 </g>
 <g>
  <path d="m -24 13 a 1.5 2 0 1 1 -3 0 1.5 2 0 1 1 3 0 z" transform="matrix(4.3274075,0,0,3.2455556,117.12222,-35.418889)" style="fill:url(#linearGradient3950);opacity:1;fill-opacity:1;stroke:none"/>
  <path d="m 40.03 7.531 c 3.712 4.085 5.969 9.514 5.969 15.469 c 0 12.703 -10.297 23 -23 23 c -5.954 0 -11.384 -2.256 -15.469 -5.969 c 4.178 4.291 10.01 6.969 16.469 6.969 c 12.703 0 23 -10.297 23 -23 c 0 -6.462 -2.677 -12.291 -6.969 -16.469 z" transform="scale(0.28222223,0.28222223)" style="fill:#000;opacity:0.1;fill-opacity:1;stroke:none"/>
 </g>
 <g>
  <rect rx="0.776" y="3.951" x="3.387" height="6.209" width="7.338" style="fill:#000;fill-opacity:0.102;stroke:none"/>
  <path d="m 3.393 3.945 -0.254 2.822 0.254 2.822 3.387 0.254 3.387 -0.254 0.254 -2.822 -0.254 -2.822 -3.387 -0.254 z" style="fill:#2c87d5"/>
  <path d="m 5.801 3.76 -2.408 0.185 -0.247 2.76 c 0.169 0.04 0.348 0.062 0.529 0.062 1.247 0 2.258 -1.01 2.258 -2.258 0 -0.263 -0.05 -0.515 -0.132 -0.75 z" style="fill:#fff;opacity:0.2"/>
  <path d="m 3.365 3.945 0 1.596 c 0.128 0.06 0.301 0.097 0.452 0.097 0.546 0 0.988 -0.442 0.988 -0.988 0 -0.277 -0.116 -0.526 -0.3 -0.706 z" style="fill:#fbc06e"/>
  <path d="m 4.804 7.332 -1.439 1.411 0 0.875 3.133 0 0 -0.593 z" style="fill:#f7f7f7"/>
  <path d="m 4.804 7.332 0.282 1.129 -0.564 0.706 0.282 0.452 1.693 0 0 -0.593 z" style="fill:#dfdfdf"/>
  <path d="m 8.473 6.203 -2.54 3.415 4.262 0 0 -1.536 z" style="fill:#f7f7f7"/>
  <path d="m 8.473 6.203 0.423 1.411 -0.423 1.27 0.503 0.734 1.219 0 0 -1.536 z" style="fill:#dfdfdf"/>
  <path d="m 3.75 3.656 c -0.353 0 -0.656 0.304 -0.656 0.656 l 0 4.938 c 0 0.353 0.304 0.625 0.656 0.625 l 6.06 0 c 0.353 0 0.625 -0.272 0.625 -0.625 l 0 -4.938 c 0 -0.353 -0.272 -0.656 -0.625 -0.656 l -6.06 0 z m 0 0.281 6.06 0 c 0.201 0 0.344 0.174 0.344 0.375 l 0 4.938 c 0 0.201 -0.142 0.344 -0.344 0.344 l -6.06 0 c -0.201 0 -0.375 -0.142 -0.375 -0.344 l 0 -4.938 c 0 -0.201 0.174 -0.375 0.375 -0.375 z" style="visibility:visible;fill:#fff;fill-opacity:1;stroke:none;display:inline;color:#000"/>
 </g>
</svg>
